image/icons/link.svg

<svg width="21" height="21" viewBox="0 0 21 21" fill="none" xmlns="http://www.w3.org/2000/svg">
<mask id="mask0_39_86" style="mask-type:alpha" maskUnits="userSpaceOnUse" x="0" y="0" width="21" height="21">
<rect x="0.666687" y="0.5" width="20" height="20" fill="#D9D9D9"/>
</mask>
<g mask="url(#mask0_39_86)">
<path d="M9.83336 14.6668H6.50003C5.34725 14.6668 4.36461 14.2606 3.55211 13.4481C2.73961 12.6356 2.33336 11.6529 2.33336 10.5002C2.33336 9.34738 2.73961 8.36475 3.55211 7.55225C4.36461 6.73975 5.34725 6.3335 6.50003 6.3335H9.83336V8.00016H6.50003C5.80558 8.00016 5.2153 8.24322 4.72919 8.72933C4.24308 9.21544 4.00003 9.80572 4.00003 10.5002C4.00003 11.1946 4.24308 11.7849 4.72919 12.271C5.2153 12.7571 5.80558 13.0002 6.50003 13.0002H9.83336V14.6668ZM7.33336 11.3335V9.66683H14V11.3335H7.33336ZM11.5 14.6668V13.0002H14.8334C15.5278 13.0002 16.1181 12.7571 16.6042 12.271C17.0903 11.7849 17.3334 11.1946 17.3334 10.5002C17.3334 9.80572 17.0903 9.21544 16.6042 8.72933C16.1181 8.24322 15.5278 8.00016 14.8334 8.00016H11.5V6.3335H14.8334C15.9861 6.3335 16.9688 6.73975 17.7813 7.55225C18.5938 8.36475 19 9.34738 19 10.5002C19 11.6529 18.5938 12.6356 17.7813 13.4481C16.9688 14.2606 15.9861 14.6668 14.8334 14.6668H11.5Z" fill="#30343D"/>
</g>
</svg>

<?xml version="1.0" encoding="utf-8"?>
<!-- Generator: Adobe Illustrator 27.0.0, SVG Export Plug-In . SVG Version: 6.00 Build 0)  -->
<svg version="1.1" id="레이어_1" xmlns="http://www.w3.org/2000/svg" xmlns:xlink="http://www.w3.org/1999/xlink" x="0px"
	 y="0px" width="21px" height="21px" viewBox="0 0 21 21" style="enable-background:new 0 0 21 21;" xml:space="preserve">
<style type="text/css">
	.st0{fill:#D9D9D9;filter:url(#Adobe_OpacityMaskFilter);}
	.st1{mask:url(#mask0_39_86_00000070090932526189997250000017641687833562329218_);}
	.st2{fill:#30343D;}
</style>
<defs>
	<filter id="Adobe_OpacityMaskFilter" filterUnits="userSpaceOnUse" x="2.3" y="6.3" width="16.7" height="8.3">
		<feColorMatrix  type="matrix" values="1 0 0 0 0  0 1 0 0 0  0 0 1 0 0  0 0 0 1 0"/>
	</filter>
</defs>
<mask maskUnits="userSpaceOnUse" x="2.3" y="6.3" width="16.7" height="8.3" id="mask0_39_86_00000070090932526189997250000017641687833562329218_">
	<rect x="0.7" y="0.5" class="st0" width="20" height="20"/>
</mask>
<g class="st1">
	<path class="st2" d="M9.8,14.7H6.5c-1.2,0-2.1-0.4-2.9-1.2s-1.2-1.8-1.2-2.9c0-1.2,0.4-2.1,1.2-2.9s1.8-1.2,2.9-1.2h3.3V8H6.5
		C5.8,8,5.2,8.2,4.7,8.7S4,9.8,4,10.5c0,0.7,0.2,1.3,0.7,1.8S5.8,13,6.5,13h3.3V14.7z M7.3,11.3V9.7H14v1.7H7.3z M11.5,14.7V13h3.3
		c0.7,0,1.3-0.2,1.8-0.7c0.5-0.5,0.7-1.1,0.7-1.8c0-0.7-0.2-1.3-0.7-1.8C16.1,8.2,15.5,8,14.8,8h-3.3V6.3h3.3c1.2,0,2.1,0.4,2.9,1.2
		S19,9.3,19,10.5c0,1.2-0.4,2.1-1.2,2.9s-1.8,1.2-2.9,1.2H11.5z"/>
</g>
</svg>
